icons/svg/trophy-outline.svg

﻿<?xml version="1.0" encoding="utf-8"?>
<!DOCTYPE svg PUBLIC "-//W3C//DTD SVG 1.1//EN" "http://www.w3.org/Graphics/SVG/1.1/DTD/svg11.dtd">
<svg xmlns="http://www.w3.org/2000/svg" xmlns:xlink="http://www.w3.org/1999/xlink" version="1.1" baseProfile="full" width="24" height="24" viewBox="0 0 24.00 24.00" enable-background="new 0 0 24.00 24.00" xml:space="preserve">
	<path fill="#000000" fill-opacity="1" stroke-width="1.33333" stroke-linejoin="miter" d="M 2,2L 2,11C 2,12 3,13 4,13L 6.19922,13C 6.59922,15 7.9,16.7 11,17L 11,19.0996C 8.8,19.2996 8,20.3992 8,21.6992L 8,22L 16,22L 16,21.6992C 16,20.3992 15.2,19.2996 13,19.0996L 13,17C 16.1,16.7 17.4008,15 17.8008,13L 20,13C 21,13 22,12 22,11L 22,2L 18,2C 17.1,2 16,3 16,4L 8,4C 8,3 6.9,2 6,2L 2,2 Z M 4,4L 6,4L 6,6L 6,11L 4,11L 4,4 Z M 18,4L 20,4L 20,11L 18,11L 18,6L 18,4 Z M 8,6L 16,6L 16,11.5C 16,13.433 15.415,15 12,15C 8.58503,15 8,13.433 8,11.5L 8,6 Z "/>
</svg>

<svg xmlns="http://www.w3.org/2000/svg" version="1.1" baseProfile="full" width="24" height="24" viewBox="0 0 24.00 24.00" xml:space="preserve"><path fill="#000" fill-opacity="1" stroke-width="1.333" stroke-linejoin="miter" d="M2 2v9c0 1 1 2 2 2h2.2c.4 2 1.7 3.7 4.8 4v2.1c-2.2.2-3 1.3-3 2.6v.3h8v-.3c0-1.3-.8-2.4-3-2.6V17c3.1-.3 4.4-2 4.8-4H20c1 0 2-1 2-2V2h-4c-.9 0-2 1-2 2H8c0-1-1.1-2-2-2H2zm2 2h2v7H4V4zm14 0h2v7h-2V4zM8 6h8v5.5c0 1.933-.585 3.5-4 3.5s-4-1.567-4-3.5V6z"/></svg>
